cssgg/play-track-prev-o.svg

<svg
  width="24"
  height="24"
  viewBox="0 0 24 24"
  fill="none"
  xmlns="http://www.w3.org/2000/svg"
>
  <path
    fill-rule="evenodd"
    clip-rule="evenodd"
    d="M8 8C8.55228 8 9 8.44772 9 9V15C9 15.5523 8.55228 16 8 16C7.44771 16 7 15.5523 7 15V9C7 8.44772 7.44771 8 8 8ZM16 15.4641L10 12L16 8.5359V15.4641Z"
    fill="currentColor"
  />
  <path
    fill-rule="evenodd"
    clip-rule="evenodd"
    d="M3 12C3 16.9706 7.02944 21 12 21C16.9706 21 21 16.9706 21 12C21 7.02944 16.9706 3 12 3C7.02944 3 3 7.02944 3 12ZM12 1C5.92487 1 1 5.92487 1 12C1 18.0751 5.92487 23 12 23C18.0751 23 23 18.0751 23 12C23 5.92487 18.0751 1 12 1Z"
    fill="currentColor"
  />
</svg>

<svg viewBox="0 0 24 24" xmlns="http://www.w3.org/2000/svg"><g fill-rule="evenodd"><path d="M8 8c.55 0 1 .44 1 1v6c0 .55-.45 1-1 1 -.56 0-1-.45-1-1V9c0-.56.44-1 1-1Zm8 7.46l-6-3.47 6-3.47v6.92Z"/><path d="M3 12c0 4.97 4.02 9 9 9 4.97 0 9-4.03 9-9 0-4.98-4.03-9-9-9 -4.98 0-9 4.02-9 9Zm9-11C5.92 1 1 5.92 1 12c0 6.07 4.92 11 11 11 6.07 0 11-4.93 11-11 0-6.08-4.93-11-11-11Z"/></g></svg>
